src/icon/entity/emoney/icon_emoney_xxl_white.svg

<svg xmlns="http://www.w3.org/2000/svg" width="48" height="48" viewBox="0 0 48 48"><path fill="none" d="M0 0h48v48H0z"/><path d="M44.4 19.3c0-5.2-2.8-10.3-7.2-13.1-3.2-2-7.2-3.1-11.7-3.1C13.5 3.1 5 11.7 5 23.9c0 12.7 8.2 20.9 20.8 20.9 3 0 5.7-.3 7.8-.9v-.7c-1.9.5-4.8.8-7.8.8C14 44 6.1 36 6.1 24c0-11.6 8.1-20 19.2-20 4.1 0 7.9 1 11.1 2.9l.2.1c4.2 2.6 6.7 7.3 6.7 12.4 0 3.8-.3 7.5-3.4 10.9-2.1 2.3-5.4 3.3-10.7 3.3-.8 0-1.5 0-2.3-.1-4.4-.5-9-3.1-9-8.8v-1.1h15.4v-.3c0-5.9-3.2-9.6-8.3-9.6-5.2 0-8.6 3.9-8.6 10.1v.9c0 .9.3 8.6 10 9.7.9.1 1.9.2 2.8.2 5.4 0 8.6-1 11.2-3.6 3.4-3.2 4-6.9 4-11.7zm-26.5 2.6c.4-4.4 3.2-7.2 7.1-7.2 4 0 6.6 2.9 6.8 7.3v.9h-14l.1-1z" fill="#FFF"/></svg>

<svg xmlns="http://www.w3.org/2000/svg" width="48" height="48" viewBox="0 0 48 48"><rect width="48" height="48" fill="none"/><path d="M44.4,19.3C44.4,14.1 41.6,9 37.2,6.2C34,4.2 30,3.1 25.5,3.1C13.5,3.1 5,11.7 5,23.9C5,36.6 13.2,44.8 25.8,44.8C28.8,44.8 31.5,44.5 33.6,43.9L33.6,43.2C31.7,43.7 28.8,44 25.8,44C14,44 6.1,36 6.1,24C6.1,12.4 14.2,4 25.3,4C29.4,4 33.2,5 36.4,6.9L36.6,7C40.8,9.6 43.3,14.3 43.3,19.4C43.3,23.2 43,26.9 39.9,30.3C37.8,32.6 34.5,33.6 29.2,33.6C28.4,33.6 27.7,33.6 26.9,33.5C22.5,33 17.9,30.4 17.9,24.7L17.9,23.6L33.3,23.6L33.3,23.3C33.3,17.4 30.1,13.7 25,13.7C19.8,13.7 16.4,17.6 16.4,23.8L16.4,24.7C16.4,25.6 16.7,33.3 26.4,34.4C27.3,34.5 28.3,34.6 29.2,34.6C34.6,34.6 37.8,33.6 40.4,31C43.8,27.8 44.4,24.1 44.4,19.3L44.4,19.3ZM17.9,21.9C18.3,17.5 21.1,14.7 25,14.7C29,14.7 31.6,17.6 31.8,22L31.8,22.9L17.8,22.9L17.9,21.9L17.9,21.9Z" fill="#FFFFFF"/></svg>
